!!!OTL: Der geistliche Tannebaum
!!!ARE: Europa, Mitteleuropa, Deutschland
!!!SCT: A0656A
!!!YEM: Copyright 1995, estate of Helmut Schaffrath.
**kern
*ICvox
*Ivox
*M4/4
*k[b-e-]
*g:
{4dd
=1
4.a
8g
4a
4dd
=2
4.a
8g
4a
4a
=3
4dd
4cc
4.b-
8b-
=4
2a
4r}
{4dd
=5
4.a
8g
4a
4dd
=6
4.a
8g
4a
4a
=7
4dd
4cc
4.b-
8b-
=8
2a
4r}
{4a
=9
4b-
4b-
4cc
4cc
=10
2dd
4dd
4dd
=11
4.cc
8cc
4.b-
8cc
=12
2a
4r}
{4a
=13
4b-
4cc
4dd
4b-
=14
2cc
4cc
4cc
=15
4.dd
8cc
4b-
4a
=16
2.g}
==
!!!AGN: Romanze, Ballade, Lied, religioeses Lied
!! Fl. Blatt
!!!ONB: ESAC (Essen Associative Code) Database: ALTDEU
!!!AMT: simple quadruple
!!!AIN: vox
!!!EED: Helmut Schaffrath
!!!EEV: 1.0
*-
